X:1
T:Stript of their green - Purcell
T:#
%%score 1 { ( 2 3 6 ) | ( 4 5 ) }
L:1/8
Q:1/4=72
M:4/4
K:Bb
V:1 treble nm="Soprano"
V:2 treble nm="Accomp."
V:3 treble 
V:6 treble 
V:4 bass 
V:5 bass 
V:1
"^Stript of their green""^Peter Anthony Motteux\n(1663-1718)"!p!"^rather slow""^Henry Purcell\n(1659-95)" (B/c/d) cB c2 (cF) | %1
w: Stript * * of their green our *|
 (F/G/A) (GF) B3 A | (GF) (_AG) (FE) (FD) |[M:4/4] (EC) (D/E/F) D3 F |"^cresc." (B>cd>e d>e f)F | %5
w: groves * * ap\- * pear, Our|vales * lie * bur\- * ied *|deep * in * * snow; The|blow- * * * * * * ing|
 B3 d!>(! (ed) (cB)!>)! | A3!p! G _A2 (GF) | =E2 ([_dd]c) _A2 (GF) |1 F6 z2 :|2 F6!p! c2 || %10
w: north con- trols * the *|air, A nip- ping *|cold chills * all be\- *|low.|low. The|
 c2 A2 (d>cB>A | G>A) (BD) (DE) (B/A/G) | ^F4 A2 AA |"^cresc." (B>cA>B c>dB>c | %14
w: frost has glaz'd * * *|* * our * deep\- * est * *|streams, Phoe- bus with-|draws * * * * * * *|
 d>e) d2"^dim." B2 (AG) | G4 d2 d"^cresc."d | (e>fd>e f>gf>e | d>ec>d e>fd3/2e/4f/4 | %18
w: * * his kind- ly *|beams, Phoe- bus with-|draws * * * * * * *||
 gB)"^dim." B2 B3 (c/A/) | B6 z ||[M:3/8]"^rather quick"!mf![Q:1/4=60] B |: B2 F x6 | d2 f x5 | %23
w: * * his kind- ly *|beams.|Yet|Win- ter,|blest be|
 (fe/d/) (c/B/) x5 | A2 d x5 |[M:3/8][Q:1/4=60][Q:1/4=60] (c/d/e)d | (G/A/B)A | (A/B/c) (B/A/) | %28
w: thy * * re\- *|turn; Thou'st|brought * * the|swain * * for|whom * * I *|
 A2 (G/F/) | F3- |1 F2 B :|2 (F2 f ||"^cresc." d2 B | e2 f | gcf/d/ | eAd/A/ | =BG)c | %37
w: us'd to *|mourn.|* Yet|\_ And|in thy|ice with|plea\- * * *||* * sing|
 (c/d/e) (d/c/) | c3- | c2 c |!<(! A2 F | B2 c!<)! |!f! (dGc/G/ | AFf/c/ | dBe/d/ | cF)B | %46
w: flames * * we *|burn,|* and|in thy|ice with|plea\- * * *|||* * sing|
 (B/c/d) (c/B/) | B3- | B2 z ||[M:4/4]"^tempo Imo"!p![Q:1/4=72] B2 |: %50
w: flames * * we *|burn.||Too|
[M:4/4][Q:1/4=72][Q:1/4=72] (B/c/d) (cB) c2 (cF) | (F/G/A) (GF) B3 A | (GF) (_AG) (FE) (FD) | %53
w: soon * * the * sun's re\- *|vi\- * * ving * heat Will|thaw * thy * ice * and *|
 (EC) (D/E/F) D4 |"^cresc." (B->cd>e d>e) fF | B3 d (ed) (cB) | A3 G!p! _A2 GF | %57
w: melt * thy * * snow;|Trum\- * * * * * pets will|sound and drums * will *|beat, And tell me the|
 =E2 (_dc) _A2 (GF) |1 F6 B2 :|2 F6!p! c2 || c2 A2 (d>cB>A | G>A) (BD) (DE) (B/A/G) | ^F3 A A3 A | %63
w: dear, dear * youth must *|go. Too|go. Then|must my weak, * * *|* * un\- * wil\- * ling * *|arms Re- sign him|
"^cresc." (B>cA>B c>dB>c | d>e) d2 B2"^dim." (AG) | G3 d d3 d |"^cresc." (e>fd>ef>gf>e | %67
w: up * * * * * * *|* * to stron- ger *|charms, re- sign him|up * * * * * * *|
 d>ec>d e>fd3/2e/4f/4 | gB) B2"^dim." B3 A | B6 z ||[M:3/8]"^rather quick"!mf![Q:1/4=60] B |: %71
w: |* * to stron- ger|charms.|What|
 B2 F x6 | d2 f x5 | (fe/d/) (c/B/) x5 | A2 d x5 |[M:3/8][Q:1/4=60][Q:1/4=60] (c/d/e)d | (G/A/B)A | %77
w: flowers, what|sweets, what|beaut\- * * eous *|thing When|Da\- * * mon's|gone * * can|
 (A/B/c) (B/A/) | A2 (G/F/) | (F3- |1 F2 B :|2 F2 (f/)e/ ||"^cresc." d>c)B | e e2 | (gcf/d/ | %85
w: ease * * or *|plea- sure *|bring?|* What|\_ Win\- *|* ter brings|Da- mon,|Win\- * * *|
 eAd/A/ | =BG)c | (c/d/e) (d/c/) | c3- | c2 (c/B/ | A>)G"^cresc."F | B B2 |!f! (dGc/G/ | AFf/c/ | %94
w: |* * ter|is * * my *|Spring;|* Win\- *|* ter brings|Da- mon,|Win\- * * *||
 dBe/d/ | cFB) | (B/c/d) (c/B/) |[Q:1/4=58] B3-[Q:1/4=56][Q:1/4=55][Q:1/4=53][Q:1/4=52] | %98
w: |* * ter|is * * my *|Spring.|
[Q:1/4=51] B3[Q:1/4=50] |] %99
w: |
V:2
!p!!p! [Bd]2 cB [FAc]2 [CFA]2- | [CFA]2 GF B3 A | [EG]F_AG FE [B,DF]2 | %3
[M:4/4] [CE]2- [F,CF]2"^cresc." [F,D]2 x2 | [DB]>[Ec][Fd]>[Ge] [Bd]>[ce] [cf]2 | %5
 e3 [df]!>(! [eg][df][ce][Bd]!>)! | c4- cB B2- | BG [CF_A]2 A2 [_EG]2 |1 [CF]4 [F=A]2 B[Ac] :|2 %9
!p! F6 x2 || x2 FA [Bd]>[Ac][GB]>[FA] | G>A [FB]2 [EB]2 [GB]2 | [^FA]4!<(! A>BG>A | %13
 B>cA>B!<)! c>d[FB]>[EAc] | [DBd]4!>(! [DGB]2 [C^FA]2!>)! | [B,G]2!<(! B>c d>ec>d | %16
 e>fd>e!<)! [cf]>[dg][Bf]>[ce] |!<(! d>ec>d e>fd3/2e/4f/4!<)! | x2 b2!>(! ed [Fc]2 | [DB]6!>)! z || %20
[M:4/4]!mf! [DB] |: [DB]2 [Fc] [Bd]2 [Fcf]-[GBf]e/d/ x | c/B/[FA]/>[GB]/[Ac][Fd] x4 | x3 x5 | %24
 x3 x5 |[M:3/8] [Fc]2 [Fd] | [=EG]/[FA]/[GB][FA] | [CGc][CG][CFA] | [CFA]2 [B,=EG] | %29
 [A,F][Ac]/[GB]/[FA]/[=EG]/ |1 [FA][A,F][B,G]/[CA]/ :|2 [FA][A,F][Af] || [FBd]2 [DB] | e/>d/ef | %34
 [Gg]2 [Gf] | [ce]/>[df]/[ce]/>c/[df]/>[ce]/ | d/>=B/c/>d/c/>e/- | [ce]/d/ed/c/ | c3- | %39
 c/>d/c/>B/A/>G/ |!<(! [FA]2 [FA] | [FB]2 [EAc]!<)! |!f! [Bd]/>[Ac]/Be- | e/>d/cf/>e/ | %44
 [Bd]/>c/d[ce]/[Bd]/ | c[df]/>[ce]/d- | [GBd]/[Gce]/[FBd][EAc] | [DB][DF]/>[CE]/[B,D]/>[F,C]/ | %48
 [B,D] B,2 ||[M:4/4]!p! [Bd]2 |:[M:4/4]!p! [Bd]2 cB [FAc]2 [CFA]2- | [CFA]2 GF B3 A | %52
 [EG]F_AG FE [DF]2 | [CE]2 [F,F]2"^cresc." [F,D]2 z2 | [DB]>[Ec][Fd]>[Ge] [Bd]>[ce] [cf]2 | %55
 e3 [df] [eg][df][ce][Bd] |!>(! [ce]4!>)!!p! cB B2- | BG [F_A]2 A2 G2 |1 F4 !courtesy!=A2 B[Ac] :|2 %59
 F6 x2 || x2 FA [Bd]>[Ac][GB]>[FA] | G>A [FB]2 [EB]2 [GB]2 | [^FA]4!<(! A>BG>A | %63
 B>cA>B c>dB>[Ac]!<)! | [DBd]4!>(! [DGB]2 [C^FA]2 | [B,G]2!>)! B>!<(!c d>ec>d!<)! | %66
!<(! e>fd>e [cf]>[dg][Bf]>[ce] | d>ec>d e>!<)!fd3/2e/4f/4 | x2 b2!>(! ed [Fc]2 | B4-!>)! x2 z || %70
[M:4/4]!mf! [DB] |: [DB]2 [Fc] [Bd]2 f-fe/d/ x | c/B/[FA]/>[GB]/[Ac][Fd] x4 | x3 x5 | x3 x5 | %75
[M:3/8] [Fc]2 [Fd] | [=EG]/[FA]/[GB][FA] | [CGc][CG][CFA] | [CFA]2 [B,=EG] | %79
 [A,F][Ac]/[GB]/[FA]/[=EG]/ |1 [FA][A,F][B,G]/[CA]/ :|2 AFf/e/ || [FBd]2 [DB] | e/>d/e>f | %84
 [Bg]2 [Gf] | [ce]/>[df]/[ce]/>c/[df]/>[ce]/ | d/>=B/c/>d/c/>e/- | e/d/ed/c/ | c3- | %89
 c/>d/c/>B/A/>G/ |!<(! [FA]2 [FA] | B/>A/B>[Ac]!<)! | [Bd]/>[Ac]/B[ce]- | e/>d/c/f/>e/ x/ | %94
 [Bd]/>c/ d[ce]/[Bd]/ | c[df]/>[ce]/d- | [GBd]/[Gce]/[FBd][EAc] | [DB][DF]/>[CE]/[B,D]/>[F,C]/ | %98
 [B,D] B,2 |] %99
V:3
 F4 x4 | x2 C2 [B,F]2 [B,D]2 | B,2 E2 B,2 x2 |[M:4/4] x4 B,>CD>E | F2 B2 F4 | BcB_A G2 x2 | %6
 =AB!p!AG _AFGF | =E2 x2 _DF x2 |1 x6 F2 :|2 C4 x2 CF || A>GF>E D4 | E2 x6 | x4 D4- | D4 G2 x2 | %14
 x8 | x2 G2 G4 | G4 x4 | x4 B>cA>B | B4 x4 | x7 ||[M:4/4] x |: x2 x x2 x x G2 | x2 x x5 | x8 | x8 | %25
[M:3/8] x2 x | x2 x | x3 | x3 | x3 |1 x3 :|2 x3 || x3 | [EB]2 [_Ad] | cc=B | G !courtesy!=A2 | %36
 =BG[E_A] | [F_A]/A/[Gc][F=B] | =E/>F/E/>D/E/>C/ | F2 C | x2 x | x2 x | FG[Gc] | [FA]F[FA] | FBG | %45
 AAB | x3 | x3 | x x2 ||[M:4/4] x2 |:[M:4/4] F4 x4 | x2 C2 [B,F]2 [B,D]2 | B,2 E2 B,2 B,2 | %53
 C4 B,>CD>E | F2 B2 F4 | BcB_A G2 x2 | !courtesy!=ABAG _AFGF | =E2 C2 _DF E2 |1 C4 F2 F2 :|2 %59
 C2 x2 x2 CF || A>G F>E D4 | E2 x6 | x4 D4- | D4 G2 F>E | x8 | x2 G2 G4 | G4 x4 | x4 B>cA>B | %68
 B4 B3 A | D6 x ||[M:4/4] x |: x2 x x2 [Fc][GB] G2 | x2 x x5 | x8 | x8 |[M:3/8] x2 x | x2 x | %77
 x2 x | x2 x | x2 x |1 x2 x :|2 FF[FA] || x2 x | [EB][EB]>[_Ad] | Gc=B | G !courtesy!=A2 | %86
 =BG[E_A] | [F_Ac]/A/[Gc][F=B] | =E/>F/E/>D/E/>C/ | F2 C | x2 x | FF>E | FGG | [FA]F[FA] | FBG | %95
 AAB | x2 x | x2 x | x x2 |] %99
V:4
!p! B,,4 F,4 | E,4 D,2 B,,2 | E,D,C,E, D,C, B,,2- |[M:4/4] B,,2 A,,2 B,,4- | B,,4 B,2 A,2 | %5
 G,_A,G,F, E,4 | F,G,F,E, D,2 B,F, | [C,G,]2 _A,,2 [B,,F,]2 [C,C]2 |1 %8
 F,,2 F,G, F,!courtesy!_E,!courtesy!=D,C, :|2 z2 F,A, C>B,A,>G, || F,4 B,,4 | E,2 D,2 C,4 | %12
 D,2 D,>=E, ^F,>G,E,>F, | G,2 =F,2 _E,2 D,>C, | B,,2 C,2 D,2 D,,2 | G,2 G,>A, B,>CA,>B, | %16
 C2 B,2 A,>B,G,>A, | B,>CA,>B, G,>A,F,>G, | E,>F,D,>E, C,2 F,2 | B,,6 z ||[M:4/4] B,, |: %21
 B,,B,A, x6 | B,2 A, x5 | G,C,/D,/E,/C,/ x5 | F,2 B,, x5 |[M:3/8] A,,2 B,, | C,2 D, | =E,2 F, | %28
 C,2 C,, | F,,3 |1 F,>!courtesy!_E,D,/C,/ :|2 F,,3 ||"^cresc." B,,B,_A, | G,2 F, | E,2 D, | %35
 C,F,D, | G,E,[_A,A,] | F,G,G,, | C,2 C | A,D,=E, | F,2 !courtesy!_E, | D,2 C, | B,,E,C, | F,A,F, | %44
 B,G,E, | F,D,G, | E,F,F,, | B,,3- | B,, [B,,D,]2 ||[M:4/4]!p! z2 |:[M:4/4] B,,4 F,4 | %51
 E,4 D,2 B,,2 | E,D,C,E, D,C, B,,2- | B,,2 A,,2 B,,4- | B,,4 B,2 A,2 | G,_A,G,F, E,4 | %56
 F,G,F,E, D,2 B,F, | [C,G,]2 _A,,2 [B,,F,]2 [C,C]2 |1 F,,2 F,G, F,!courtesy!_E,!courtesy!=D,C, :|2 %59
 z2!p! F,A, C>B, A,>G, || F,4 B,,4 | E,2 D,2 C,4 | D,2 D,>=E, ^F,>G,E,>F, | %63
 G,2 !courtesy!=F,2 !courtesy!_E,2 D,>C, | B,,2 C,2 D,2 D,,2 | G,2 G,>A, B,>CA,>B, | %66
 C2 B,2 A,>B,G,>A, | B,>CA,>B, G,3/2A,F,G,/ | E,>F,D,>E, C,2 F,2 | B,,6 z ||[M:4/4] B,, |: %71
 B,,B,A, x6 | B,2 A, x5 | G,C,/D,/E,/C,/ x5 | F,2 B,, x5 |[M:3/8] A,,2 B,, | C,2 D, | =E,2 F, | %78
 C,2 C,, | F,,3 |1 F,>!courtesy!_E,D,/C,/ :|2"^cresc." F,,3 || B,,B,_A, | G,2 F, | E,2 D, | %85
 C,F,D, | G,E,_A, | F,G,G,, | C,2 C | A,D,=E, | F,2 !courtesy!_E, | D,2 C, |!f! B,,E,C, | F,A,F, | %94
 B,G,E, | F,D,G, | E,F,F,, | B,,3- | B,, [B,,D,]2 |] %99
V:5
 x8 | x8 | x8 |[M:4/4] x8 | x8 | x8 | x4 x2 _D,2 | x8 |1 x8 :|2 F,,6 F,,2 || x4 x4 | x4 x4 | x8 | %13
 x8 | x8 | x8 | x8 | x8 | x8 | x7 ||[M:4/4] x |: x9 | x8 | x8 | x8 |[M:3/8] x3 | x3 | x3 | x3 | %29
 x3 |1 x3 :|2 x3 || x3 | x3 | x3 | x3 | x3 | x3 | x3 | x3 | x3 | x3 | x3 | x3 | x3 | x3 | x3 | x3 | %48
 x3 ||[M:4/4] x2 |:[M:4/4] x8 | x8 | x8 | x8 | x8 | x8 | x4 x2 [_D,D,]2 | x2 x2 x4 |1 x4 x4 :|2 %59
 F,,6 F,,2 || x8 | x8 | x8 | x8 | x8 | x8 | x8 | x8 | x8 | x7 ||[M:4/4] x |: x9 | x8 | x8 | x8 | %75
[M:3/8] x3 | x3 | x3 | x3 | x3 |1 x3 :|2 x3 || x3 | x3 | x3 | x3 | x3 | x3 | x3 | x3 | x3 | x3 | %92
 x3 | x3 | x3 | x3 | x3 | x3 | x3 |] %99
V:6
 x8 | x8 | x8 |[M:4/4] x8 | x8 | x8 | x8 | x8 |1 x8 :|2 x8 || x8 | x8 | x8 | x8 | x8 | x8 | x8 | %17
 x4 x4 | g>a f>g B3 A | x7 ||[M:4/4] x |: x8 x | x8 | x8 | x8 |[M:3/8] x3 | x3 | x3 | x3 | x3 |1 %30
 x3 :|2 x3 || x3 | x3 | x3 | x3 | x3 | x3 | x3 | x3 | x3 | x3 | x3 | x3 | x3 | x3 | x3 | x3 | x3 || %49
[M:4/4] x2 |:[M:4/4] x8 | x8 | x8 | x8 | x8 | x8 | x8 | x8 |1 x8 :|2 x8 || x8 | x8 | x8 | x8 | x8 | %65
 x8 | x8 | x8 | g>a f>g x4 | x4 x2 x ||[M:4/4] x |: x8 x | x8 | x8 | x8 |[M:3/8] x3 | x3 | x3 | %78
 x3 | x3 |1 x3 :|2 x3 || x3 | x3 | x3 | x3 | x3 | x3 | x3 | x3 | x3 | x3 | x3 | x3 | x3 | x3 | x3 | %97
 x3 | x3 |] %99

